X: 18202
T: Humours Of Glendart, The
R: jig
M: 6/8
K: Dmajor
|:BAF ADD|FEF DFA|BAF ADD|FEE EFA|
BAF AFD|Dfe d2e|fed BAF|AFE EFA:|
|:dfe d2B|ABA AFA|dfe d/d/df|gfe fdA|
dfe d2B|ABA AFA|fed ABc|dAF EFA:|

